X:1
T:Title
%%score { 1 | 2 }
L:1/8
M:6/4
K:F
V:1 treble nm="Grand Piano"
V:2 bass 
V:1
 z6 z4[Q:1/4=114] C2 | A2 _A2 =A2 B2 A2 F2 | [FA]2 [EG]2 E2 F4 A2 | c2 =B2 c2 d2 c2 A2 | %4
 [EG]6- [EG]4 C2 | A2 _A2 =A2 B2 A2 F2 | [FA]2 [EG]2 E2 F4 A2 | G2 c2 G2 =B4 d2 | %8
[M:5/4] [Ec]2- [Ec]2- [Ec]6 |[M:1/4] [Ec]2 |[M:6/4] d2 c2 A2 F2 B2 A2 | A2 G2 A2 B4 d2 | %12
 [Ge]2 [Bd]2 [Ac]2 [EG]2 [FA]2 [GB]2 | A6- A4 c2 | d2 c2 A2 F2 B2 A2 | %15
[M:7/4] G2 A2 B2 [Gd]6 [Fd]2 |[M:6/4] [Fc]2 [Fd]2 [Fc]2 [FA]4 [EG]2 |[M:5/4] [CF]2- [CF]2- [CF]6 |] %18
V:2
 z6 z4 [F,A,]2 | [F,CF]2 [F,=B,F]2 [F,CF]2 [F,DF]2 [F,CF]2 [F,A,]2 | %2
 [C,C]2 [C,B,]2 [C,B,C]2 [F,A,C]4 [F,C]2 | [F,A,F]2 [F,_A,F]2 [F,=A,F]2 [F,B,F]2 [F,A,F]2 [F,CF]2 | %4
 [C,C]6- [C,C]4 [F,A,]2 | [F,CF]2 [F,=B,F]2 [F,CF]2 [F,DF]2 [F,CF]2 [F,A,]2 | %6
 [C,C]2 [C,B,]2 [C,B,C]2 [F,A,C]4[K:treble] [F,CF]2 | [G,CE]2 [G,CE]2 [G,CE]2 [G,DF]4 [G,=B,F]2 | %8
[M:5/4][K:bass] [C,C]2- [C,C]2- [C,C]6 |[M:1/4] [C,B,]2 | %10
[M:6/4] [F,A,F]2 [F,A,F]2 [F,CF]2 [F,A,]2[K:treble] [F,DF]2 [F,CF]2 | %11
 [B,D]2 [B,D]2 [A,D^F]2 [G,DG]4 [G,B,G]2 | [C,C]2 [C,C]2 [C,C]2 [C,C]2 [C,C]2 [E,C]2 | %13
 [F,CF]6- [F,CF]4 [F,A,F]2 | [F,B,F]2 [F,A,F]2 [F,CF]2 [F,A,]2[K:treble] [F,DF]2 [F,CF]2 | %15
[M:7/4] [B,D]2 [A,D^F]2 [G,DG]2[K:bass] [B,,B,]6 [=B,,_A,]2 | %16
[M:6/4] [C,A,]2 [C,B,]2 [C,A,]2 [C,C]4 [C,B,]2 |[M:5/4] [F,A,]2- [F,A,]2- [F,A,]6 |] %18

